X:1
T: Gordon Graham's Favourite
C:Dan R. MacDonald
R:Jig
Q:180
K:Bb
M:6/8
L:1/16
G2|F6 F2D2F2|B6 B2A2B2|d2c2B2 b2f2d2|B6 B2A2B2|G6 G2^F2G2|c6 c2B2c2|e2d2c2 a2g2f2|d2f2d2 Bcd2B2|
F6 F2D2F2|B6 B2A2B2|d2c2B2 b2f2d2|B6 B2c2d2|c2A2F2 C2F2A2|B2F2D2 B,2D2F2|A2G2F2 e2d2c2|B6 d2e2=e2|
f6 f2=e2f2|b2a2g2 f2d2B2|D2F2B2 E2G2B2|F6 F2A2B2|c6 c2A2F2|C2F2A2 B2d2f2|a2g2f2 e2f2e2|d6 d2e2=e2|
f6 f2=e2f2|b2a2g2 f2d2B2|D2F2B2 E2G2B2|F6 F4D2|E2D2E2 C2E2G2|F2D2B,2 D2F2B2|A2G2F2 e2d2c2|B6 B4||
